X:1
T: Ulster Boys
C:
R:Jig
Q:180
K:A
M:6/8
L:1/16
|:A4c2 e2c2A2|B4A2 G2F2E2|A4c2 e2c2A2|d2B2G2 A6|
A4c2 e2c2A2|B4A2 G2F2E2|A4c2 e2c2A2|d2B2G2 A6|
c2A2c2 e2f2g2|a2g2f2 e2f2d2|c2A2c2 e2f2g2|a2g2f2 e6|
c2A2c2 e2f2g2|a2g2f2 e2d2c2|d2e2d2 c2B2A2|B2c2B2 A6:|
